Numix-GalliumOS/22/status/appointment-missed.svg

<?xml version="1.0" encoding="UTF-8" standalone="no"?>
<svg
   xmlns:dc="http://purl.org/dc/elements/1.1/"
   xmlns:cc="http://creativecommons.org/ns#"
   xmlns:rdf="http://www.w3.org/1999/02/22-rdf-syntax-ns#"
   xmlns:svg="http://www.w3.org/2000/svg"
   xmlns="http://www.w3.org/2000/svg"
   xmlns:sodipodi="http://sodipodi.sourceforge.net/DTD/sodipodi-0.dtd"
   xmlns:inkscape="http://www.inkscape.org/namespaces/inkscape"
   width="22"
   height="22"
   viewBox="0 0 22 22"
   id="svg2"
   version="1.1"
   inkscape:version="0.91 r13725"
   sodipodi:docname="appointment-missed.svg">
  <metadata
     id="metadata16">
    <rdf:RDF>
      <cc:Work
         rdf:about="">
        <dc:format>image/svg+xml</dc:format>
        <dc:type
           rdf:resource="http://purl.org/dc/dcmitype/StillImage" />
        <dc:title />
      </cc:Work>
    </rdf:RDF>
  </metadata>
  <defs
     id="defs14" />
  <sodipodi:namedview
     pagecolor="#ffffff"
     bordercolor="#666666"
     borderopacity="1"
     objecttolerance="10"
     gridtolerance="10"
     guidetolerance="10"
     inkscape:pageopacity="0"
     inkscape:pageshadow="2"
     inkscape:window-width="1366"
     inkscape:window-height="704"
     id="namedview12"
     showgrid="false"
     inkscape:zoom="22.627417"
     inkscape:cx="6.1721105"
     inkscape:cy="7.4644661"
     inkscape:window-x="0"
     inkscape:window-y="27"
     inkscape:window-maximized="1"
     inkscape:current-layer="svg2" />
  <g
     transform="translate(-1 -1.00004)"
     id="g4">
    <path
       style="opacity:1;fill:#ebebeb;fill-opacity:1;fill-rule:evenodd"
       d="m 21,12.001644 a 9,9.000039 0 0 1 -17.9999998,0 9,9.000039 0 1 1 17.9999998,0 z"
       id="path6"
       inkscape:connector-curvature="0" />
    <path
       style="fill:#aaaaaa;opacity:1;fill-opacity:1"
       d="M 11.984375,5.484375 C 11.433594,5.492188 10.992188,5.949219 11,6.5 l 0,5.5 c 0,0.234375 0.08203,0.460938 0.234375,0.640625 l 2.5,3 c 0.222656,0.300781 0.589844,0.449219 0.957031,0.394531 0.367188,-0.05859 0.671875,-0.3125 0.792969,-0.664062 0.121094,-0.351563 0.03516,-0.742188 -0.21875,-1.011719 L 13,11.640625 13,6.5 C 13.003906,6.230469 12.898438,5.96875 12.707031,5.777344 12.515625,5.585938 12.253906,5.480469 11.984375,5.484375 z"
       id="path8" />
    <path
       style="fill:#aaa;opacity:1"
       d="M 12,2 C 6.488281,2 2,6.488281 2,12 2,17.511719 6.488281,22 12,22 17.511719,22 22,17.511719 22,12 22,6.488281 17.511719,2 12,2 z m 0,2 c 4.429688,0 8,3.570312 8,8 0,4.429688 -3.570312,8 -8,8 C 7.570312,20 4,16.429688 4,12 4,7.570312 7.570312,4 12,4 z"
       id="path10" />
  </g>
  <path
     id="path6-6"
     d="M 10,17 A 5,5.0000001 0 0 1 0,17 5,5.0000001 0 1 1 10,17 Z"
     style="fill:#dc322f;fill-rule:evenodd"
     inkscape:connector-curvature="0" />
  <g
     id="g3054"
     transform="matrix(1.2000446,0,0,1.2000446,-15.403236,-3.4008881)">
    <path
       inkscape:connector-curvature="0"
       style="fill:#ffffff;fill-rule:evenodd"
       d="m 14.502586,14.500201 0,0.833302 c -0.01822,0.233539 0.06017,0.472133 0.235386,0.634034 l 1.068292,1.050686 -1.068292,1.050686 c -0.156469,0.156527 -0.235388,0.377124 -0.235386,0.597803 l 0,0.833303 0.832905,0 c 0.220574,0 0.441071,-0.07896 0.597519,-0.235499 l 1.068291,-1.0688 1.068292,1.0688 c 0.156447,0.156511 0.376936,0.235491 0.597519,0.235499 l 0.832905,0 0,-0.833303 c -7e-6,-0.220687 -0.07892,-0.441276 -0.235387,-0.597803 l -1.050185,-1.050686 1.068292,-1.050686 c 0.179308,-0.165827 0.21728,-0.395737 0.21728,-0.634034 l 0,-0.833302 -0.832905,0 c -0.200236,0.0058 -0.35856,0.07999 -0.579413,0.271729 L 17.001301,15.822615 15.93301,14.77193 c -0.147689,-0.152992 -0.349328,-0.262413 -0.561306,-0.271729 -0.0087,-3.83e-4 -0.02759,-10e-5 -0.03621,0 l -0.832905,0 z"
       id="path8-9" />
    <path
       inkscape:connector-curvature="0"
       style="fill:#dc322f;fill-opacity:0.1;fill-rule:evenodd"
       d="m 14.502586,14.500201 0,0.833302 c -0.01822,0.233539 0.06017,0.472133 0.235386,0.634034 l 1.068292,1.050686 -1.068292,1.050686 c -0.156469,0.156527 -0.235388,0.377124 -0.235386,0.597803 l 0,0.833303 0.832905,0 c 0.220574,0 0.441071,-0.07896 0.597519,-0.235499 l 1.068291,-1.0688 1.068292,1.0688 c 0.156447,0.156511 0.376936,0.235491 0.597519,0.235499 l 0.832905,0 0,-0.833303 c -7e-6,-0.220687 -0.07892,-0.441276 -0.235387,-0.597803 l -1.050185,-1.050686 1.068292,-1.050686 c 0.179308,-0.165827 0.21728,-0.395737 0.21728,-0.634034 l 0,-0.833302 -0.832905,0 c -0.200236,0.0058 -0.35856,0.07999 -0.579413,0.271729 L 17.001301,15.822615 15.93301,14.77193 c -0.147689,-0.152992 -0.349328,-0.262413 -0.561306,-0.271729 -0.0087,-3.83e-4 -0.02759,-10e-5 -0.03621,0 l -0.832905,0 z"
       id="path10-9" />
  </g>
</svg>

<svg xmlns="http://www.w3.org/2000/svg" viewBox="0 0 22 22">
 <g transform="translate(-1 -1.00004)">
  <path d="m 21 12 a 9 9 0 0 1 -18 0 9 9 0 1 1 18 0 z" style="fill:#ebebeb;opacity:1;fill-opacity:1;fill-rule:evenodd"/>
  <path d="m 11.984 5.484 c -0.551 0.008 -0.992 0.465 -0.984 1.016 l 0 5.5 c 0 0.234 0.082 0.461 0.234 0.641 l 2.5 3 c 0.223 0.301 0.59 0.449 0.957 0.395 0.367 -0.059 0.672 -0.313 0.793 -0.664 0.121 -0.352 0.035 -0.742 -0.219 -1.012 l -2.266 -2.719 0 -5.141 c 0.004 -0.27 -0.102 -0.531 -0.293 -0.723 -0.191 -0.191 -0.453 -0.297 -0.723 -0.293 z" style="fill:#aaa;opacity:1;fill-opacity:1"/>
  <path d="m 12 2 c -5.512 0 -10 4.488 -10 10 0 5.512 4.488 10 10 10 5.512 0 10 -4.488 10 -10 0 -5.512 -4.488 -10 -10 -10 z m 0 2 c 4.43 0 8 3.57 8 8 0 4.43 -3.57 8 -8 8 c -4.43 0 -8 -3.57 -8 -8 0 -4.43 3.57 -8 8 -8 z" style="fill:#aaa;opacity:1"/>
 </g>
 <path d="M 10 17 A 5 5 0 0 1 0 17 5 5 0 1 1 10 17" style="fill:#dc322f;fill-rule:evenodd"/>
 <g transform="matrix(1.2000446,0,0,1.2000446,-15.403236,-3.4008881)">
  <path d="m 14.503 14.5 0 0.833 c -0.018 0.234 0.06 0.472 0.235 0.634 l 1.068 1.051 -1.068 1.051 c -0.156 0.157 -0.235 0.377 -0.235 0.598 l 0 0.833 0.833 0 c 0.221 0 0.441 -0.079 0.598 -0.235 l 1.068 -1.069 1.068 1.069 c 0.156 0.157 0.377 0.235 0.598 0.235 l 0.833 0 0 -0.833 c 0 -0.221 -0.079 -0.441 -0.235 -0.598 l -1.05 -1.051 1.068 -1.051 c 0.179 -0.166 0.217 -0.396 0.217 -0.634 l 0 -0.833 -0.833 0 c -0.2 0.006 -0.359 0.08 -0.579 0.272 l -1.086 1.051 -1.068 -1.051 c -0.148 -0.153 -0.349 -0.262 -0.561 -0.272 -0.009 0 -0.028 0 -0.036 0 l -0.833 0 z" style="fill:#fff;fill-rule:evenodd"/>
  <path d="m 14.503 14.5 0 0.833 c -0.018 0.234 0.06 0.472 0.235 0.634 l 1.068 1.051 -1.068 1.051 c -0.156 0.157 -0.235 0.377 -0.235 0.598 l 0 0.833 0.833 0 c 0.221 0 0.441 -0.079 0.598 -0.235 l 1.068 -1.069 1.068 1.069 c 0.156 0.157 0.377 0.235 0.598 0.235 l 0.833 0 0 -0.833 c 0 -0.221 -0.079 -0.441 -0.235 -0.598 l -1.05 -1.051 1.068 -1.051 c 0.179 -0.166 0.217 -0.396 0.217 -0.634 l 0 -0.833 -0.833 0 c -0.2 0.006 -0.359 0.08 -0.579 0.272 l -1.086 1.051 -1.068 -1.051 c -0.148 -0.153 -0.349 -0.262 -0.561 -0.272 -0.009 0 -0.028 0 -0.036 0 l -0.833 0 z" style="fill:#dc322f;fill-opacity:0.1;fill-rule:evenodd"/>
 </g>
</svg>
